X:1
T:D Major Oliver Holden, 1803
T:Joseph Stennett, 1743 88. 88. (L. M.)
T:Sabbath Morn No copyright. Transcribed from The Charlestown Collection, 1803.
%%score [ 1 2 3 ]
L:1/8
M:4/4
K:D
V:1 treble nm="Treble" snm="Tr."
V:2 treble-8 nm="Tenor" snm="T."
V:3 bass nm="Bass" snm="B."
V:1
 D4 | A2 A2 F2 G2 | (A2 G2) (F2 E2) | D6 A2 | d2 d2 B2 e2 | (e2 d2) (c2 B2) | A6 z2 | z8 | z8 | %9
w: |||||||||
 z8 | z4 z2 c2 | e2 c2 A2 f2 | fe dc B2 c2 | d2 A2 (GFGA | BABc d2) g2 | f4 e4 | d8 |] %17
w: |Re-|turn, my soul, en-|joy * the * rest, *|||||
V:2
 A4 | F2 d2 A2 B2 | (d2 e2) (d2 c2) | d6 d2 | f2 f2 d2 c2 | (c2 B2) (A2 ^G2) | A6 F2 | %7
w: 1.~A-|no- ther six days'|work * is *|done; A-|no- ther Sab- bath|is * be- *|gun; Re-|
 B2 d2 d2 f2 | fe dc B2 F2 | A2 d2 d2 f2 | fe dc d2 z2 | z8 | z4 z2 e2 | f2 d2 (B2 e2 | %14
w: turn, my soul, en-|joy * the * rest, Im-|prove the hour that|God * hath * blest.||Im-|prove the hour~ _|
 d2 g2 f2) e2 | d4 c4 | d8 |] %17
w: _ _ _ that|God hath|blest.|
V:3
 D,4 | D,2 D,2 D,2 G,2 | (F,2 G,2) A,4 | D,6 D,2 | D,2 F,2 G,2 A,2 | E,4 E,4 | A,,6 D,2 | %7
w: |||||||
 D,2 D,2 B,,2 B,,2 | F,2 F,2 B,,2 D,2 | D,2 D,2 G,2 F,2 | A,2 A,,2 D,2 A,2 | A,2 A,2 A,2 D,2 | %12
w: |||* * * Re-|turn, my soul, en-|
 F,2 F,2 B,,2 A,,2 | D,2 D,2 (E,D,E,F, | G,F,G,A, B,2) G,2 | A,4 A,,4 | D,8 |] %17
w: joy the rest, *|||||

